X: 667
M: 6/8
L: 1/8
K: C
cdc cdc | c3- c2c | efe efe | e3- e2e |\
gag gag | g3- g2f | f3  e3  | d3- d2 :|
|: g |\
gfe efg | A3- A2f | fed def | G3- G2e |\
edc cde | F3- F2f | e3  d3  | c3- c2 :|

